dist/img/quotes.svg

<svg width="100" height="58" viewBox="0 0 100 58" fill="none" xmlns="http://www.w3.org/2000/svg">
<path d="M44.9456 0V16.9491H29.2379C26.4386 16.9491 25.0389 18.193 25.0389 20.681V27.9893H41.5241V58H0V22.0804C0 7.15282 7.62053 0 23.6392 0H44.9456ZM100 0V16.9491H84.2924C81.493 16.9491 80.0933 18.193 80.0933 20.681V27.9893H96.5785V58H55.0544V22.0804C55.0544 7.15282 62.675 0 78.6936 0H100Z" fill="#EDF0F6"/>
</svg>

<svg width="100" height="58" viewBox="0 0 100 58" fill="none" xmlns="http://www.w3.org/2000/svg"><path d="M44.946 0v16.95H29.238c-2.8 0-4.2 1.243-4.2 3.731v7.308h16.486V58H0V22.08C0 7.153 7.62 0 23.64 0h21.306zM100 0v16.95H84.292c-2.799 0-4.199 1.243-4.199 3.731v7.308H96.58V58H55.054V22.08C55.054 7.153 62.675 0 78.694 0H100z" fill="#EDF0F6"/></svg>55.0544 7.15282 62.675 0 78.6936 0H100Z" fill="#EDF0F6"/>
</svg>
